X:26
T:Knit the Pocky
T:aka - Lady McIntosh's Reel (4 turn strahspey setting, Cummings Collection)
T:Corney is Coming (Irish reel setting)
R:strathspey or reel
% for strathspey set more dotted rhythms could be added
D:for Cape Breton strathspey setting see Joe Confiant CD 
% a more ornate strathpey setting played by early 20th century Cape Breton fiddlers
C:traditional
O:18th century Scottish
B:Bremner's Collections, 1757
N:melodic code 11H13b 7b643 (1113 7643)
Z:Paul Stewart Cranford (P.S.C.), <http://www.cranfordpub.com>
Q:244
L:1/8
M:C
K:Dmin
D(dd)^c defd|cBAG FGEC|D(dd)^c d>ef>g|Ted^ce d/d/d d2:|
defg afdg|Te>dcg ecge|defg afdg|ecge d/d/d d2|
defg afdg|Te>dcg ecge|defg afgf ecge d/d/d d2|]
